X:1
T:Left Hand Pattern:  1 -> 5 ->8 -> 5
C:zhiming@vmiis.com
M:4/4
L:1/4
Q:1/4=120
K:C
V:1
"①"eefg|"⑤"gfed|"①"ccde|"⑤"e>dd2|
"①"eefg|"⑤"gfed|"①"ccde|"⑤"d>c"①"c2|
V:2 celf=bass
C,G,CG,|G,,D,G,D,|C,G,CG,|G,,D,G,D,|
C,G,CG,|G,,D,G,D,|C,G,CG,|G,,D,C,2|